assets/02_eyes/Eye 48.svg

<svg width="400" height="180" viewBox="0 0 400 180" fill="none" xmlns="http://www.w3.org/2000/svg">
<g clip-path="url(#clip0_70_1723)">
<path d="M371.438 79.0135C354.592 125.499 302.632 149.298 255.379 132.173C208.126 115.048 183.479 63.4851 200.326 17L371.438 79.0135Z" fill="white"/>
<path d="M266 43C290.853 43 311 63.1472 311 88C311 112.853 290.853 133 266 133C241.147 133 221 112.853 221 88C221 63.1472 241.147 43 266 43Z" fill="#FF71EE"/>
<path d="M280.425 66.0632C274.281 65.6859 269.165 69.1446 265.977 74.1544C263.398 70.1088 259.393 66.8388 254.507 66.168C244.001 64.7217 237.543 72.8129 238.025 82.7696C238.675 95.7239 249.768 102.536 258.575 110.334C261.029 112.514 263.419 114.778 265.851 117L266.25 116.895C271.345 111.76 277.112 107.337 282.459 102.474C290.008 95.5982 294.726 90.0014 293.908 79.0385C293.384 71.9115 287.45 66.4824 280.425 66.0422V66.0632Z" fill="white"/>
</g>
<g clip-path="url(#clip1_70_1723)">
<path d="M31.1861 79.0741L31.0003 78.5636L200.145 17L200.338 17.5301C216.916 63.9956 192.818 115.215 146.281 132.153C99.7448 149.091 48.3148 125.339 31.1861 79.0741Z" fill="white"/>
<path d="M55.9101 69.4968L175.213 26.0742C187.176 58.9431 170.179 95.3259 137.239 107.315C104.3 119.304 67.8734 102.366 55.9101 69.4968Z" fill="#1F69AF"/>
<path d="M88.9681 57.4648L142.175 38.099C147.506 52.7467 139.925 68.9587 125.246 74.3015C110.567 79.6443 94.3191 72.1053 88.9878 57.4576L88.9681 57.4648Z" fill="white"/>
</g>
<defs>
<clipPath id="clip0_70_1723">
<rect width="182.003" height="89.5231" fill="white" transform="translate(340.936 163.18) rotate(-160.079)"/>
</clipPath>
<clipPath id="clip1_70_1723">
<rect width="180" height="90" fill="white" transform="translate(230.926 101.572) rotate(160)"/>
</clipPath>
</defs>
</svg>

<svg xmlns="http://www.w3.org/2000/svg" width="400" height="180" fill="none" viewBox="0 0 400 180"><g clip-path="url(#Eye_48_svg_clip0_70_1723)"><path fill="#fff" d="M371.438 79.014c-16.846 46.485-68.806 70.284-116.059 53.159S183.479 63.485 200.326 17z"/><path fill="#ff71ee" d="M266 43c24.853 0 45 20.147 45 45s-20.147 45-45 45-45-20.147-45-45 20.147-45 45-45"/><path fill="#fff" d="M280.425 66.063c-6.144-.377-11.26 3.082-14.448 8.091-2.579-4.045-6.584-7.315-11.47-7.986-10.506-1.446-16.964 6.645-16.482 16.602.65 12.954 11.743 19.766 20.55 27.564 2.454 2.18 4.844 4.444 7.276 6.666l.399-.105c5.095-5.135 10.862-9.558 16.209-14.421 7.549-6.876 12.267-12.473 11.449-23.436-.524-7.126-6.458-12.556-13.483-12.996z"/></g><g clip-path="url(#Eye_48_svg_clip1_70_1723)"><path fill="#fff" d="m31.186 79.074-.186-.51L200.145 17l.193.53c16.578 46.466-7.52 97.685-54.057 114.623-46.536 16.938-97.966-6.814-115.095-53.079"/><path fill="#1f69af" d="m55.91 69.497 119.303-43.423c11.963 32.87-5.034 69.252-37.974 81.241s-69.366-4.949-81.329-37.818"/><path fill="#fff" d="m88.968 57.465 53.207-19.366c5.331 14.648-2.25 30.86-16.929 36.203-14.679 5.342-30.927-2.197-36.258-16.844z"/></g><defs><clipPath id="Eye_48_svg_clip0_70_1723"><rect width="182.003" height="89.523" fill="#fff" transform="rotate(199.921 184.797 51.653)"/></clipPath><clipPath id="Eye_48_svg_clip1_70_1723"><rect width="180" height="90" fill="#fff" transform="rotate(160 106.508 71.145)"/></clipPath></defs></svg>
